X:1
T:With Laughter and Singing (round)
M:3/4
L:1/4
K:F
 C| F F F| G C C| G G G| A A c| cA/2-c/2A/2-c/2| B G B| BG/2-B/2G/2-B/2|\
 A2 c| f/2e/2d/2 c/2B/2 A/2| c B G| E/2F/2G/2 A/2B/2 G/2| F2||
